!!!COM:	Ockeghem, Johannes
!!!CDT:	~1425-1497/02/06
!!!OPR:	Missa De plus en plus
!!!ONM:	3
!!!OTL:	Credo
!!!AGN:	Mass; Credo
!!!SCT:	Ock1005c
!!!voices:	4
!!!voices-OPR:	4
**kern	**kern	**kern	**kern
*staff4	*staff3	*staff2	*staff1
*Ivox	*Ivox	*Ivox	*Ivox
*I"Bassus	*I"Tenor	*I"Altus	*I"Superius
*I'B	*I'T	*I'A	*I'S
*clefF4	*clefGv2	*clefGv2	*clefG2
*k[]	*k[]	*k[]	*k[]
*>A	*>A	*>A	*>A
*M3/1	*M3/1	*M3/1	*M3/1
*met(O)	*met(O)	*met(O)	*met(O)
=1-	=1-	=1-	=1-
!!section: Patrem
!!!OMD: Patrem
0.r	0.r	[0.c	0c
.	.	.	2e/
.	.	.	2f/
=2	=2	=2	=2
0.r	0.r	0c]	1.g
.	.	.	4f/
.	.	.	4e/
.	.	1B	1d
=3	=3	=3	=3
0.r	0.r	0c	2r
.	.	.	1e
.	.	.	2c/
.	.	1d	2.B/
.	.	.	4A/
=4	=4	=4	=4
0.r	0.r	1.e	1c
.	.	.	2G/
.	.	4d\	2c/
.	.	4c\	.
.	.	2.B\	2d/
.	.	.	2f/
.	.	4A/	.
=5	=5	=5	=5
0.r	0.r	1c	2e/
.	.	.	2.a/
.	.	2d\	.
.	.	.	4g/
.	.	2.e\	1g
.	.	4B\	.
.	.	2c\	2e/
=6	=6	=6	=6
0.r	0.r	2d\	2f/
.	.	2G/	2g/
.	.	2A/	2.c/
.	.	2B\	.
.	.	.	4d/
.	.	2c\	2e/
.	.	2F/	2f/
=7	=7	=7	=7
!!linebreak:original
0.r	0.r	2G/	2B-/
.	.	2A/	2c/
.	.	2B\	2d/
.	.	2c\	1c
.	.	1d	.
.	.	.	2B/
=8	=8	=8	=8
0.r	0.r	0.c;	0.c;
=9	=9	=9	=9
0.r	0.r	1c	1e
.	.	2d\	2f/
.	.	1e	2.g/
.	.	.	4a/
.	.	2A/	2cc\
=10	=10	=10	=10
0.r	0.r	2G/	2b\
.	.	2A/	1cc
.	.	1c	.
.	.	.	1a
.	.	1B	.
.	.	.	2g#i/
=11	=11	=11	=11
0.r	0.r	1A	1a
.	.	1d	4b-i\
.	.	.	4a/
.	.	.	4g/
.	.	.	4f/
.	.	1c	2g/
.	.	.	2a/
=12	=12	=12	=12
0.r	0.r	2B\	1d
.	.	1d	.
.	.	.	1f
.	.	1A	.
.	.	.	1e
.	.	2c\	.
=13	=13	=13	=13
!!linebreak:original
0.r	0.r	2B\	1d
.	.	2G/	.
.	.	2D/	1B
.	.	1G	.
.	.	.	1A
.	.	2F/	.
=14	=14	=14	=14
0.r	0.r	2E/	1G
.	.	2.C/	.
.	.	.	1c
.	.	4D/	.
.	.	4E/	.
.	.	4F/	.
.	.	2D/	1B
.	.	2G/	.
=15	=15	=15	=15
0.r	0.r	2r	1c
.	.	2A/	.
.	.	2G/	1e
.	.	2.c\	.
.	.	.	1f
.	.	4B\	.
.	.	2A/	.
=16	=16	=16	=16
0.r	0.r	1G	1g
.	.	1c	1a
.	.	1d	1b
=17	=17	=17	=17
0.r	0.r	3c\V	1cc
.	.	3A/	.
.	.	3B\Z	.
.	.	3c\V	1a
.	.	3%2FZ	.
.	.	3rV	3%2gV
.	.	3.B-\	.
.	.	.	3e/Z
.	.	6G/Z	.
=18	=18	=18	=18
0.r	0.r	3A/V	3%2fV
.	.	3D/	.
.	.	3E/Z	3g/Z
.	.	3D/V	3a/V
.	.	3%2GZ	3d/
.	.	.	[3g/Z
.	.	3B-i\V	3g/]V
.	.	3%2AZ	3f#i/
.	.	.	3e/Z
=19	=19	=19	=19
0.G	1r	2.G/	0.g
.	.	4A/	.
.	1r	2B\	.
.	.	2c\	.
.	1G	1d	.
=20	=20	=20	=20
!!pagebreak:original
0C	0.G	0e	1r
.	.	.	1r
[1E	.	1c	1g
=21	=21	=21	=21
1E]	0.B	1r	1g
0D	.	0d	0f
=22	=22	=22	=22
0.C	[0.c	0.G	0e
.	.	.	1g
=23	=23	=23	=23
1F	0.c]	1r	1a
1E	.	1G	2g/
.	.	.	2.cc\
1F	.	1A	.
.	.	.	4b\
.	.	.	2a/
=24	=24	=24	=24
2G\	0.e	2B\	2g/
1A	.	2A/	1cc
.	.	2c\	.
2B\	.	2d\	2b\
1c	.	2e\	2a/
.	.	2f\	2g/
=25	=25	=25	=25
0G	[0.d	0g	0b
[1D	.	1f	[1a
=26	=26	=26	=26
1D]	0.d]	2d\	1a]
.	.	1d	.
0F	.	.	1r
.	.	2c\	.
.	.	2A/	1f
.	.	2G/	.
=27	=27	=27	=27
!!linebreak:original
1E	[0.G	1B	1.g
1C	.	1c	.
.	.	.	1e
2r	.	1B	.
[2G\	.	.	4d/
.	.	.	4c/
=28	=28	=28	=28
4G\]	0.G_	2r	1B
4E\	.	.	.
1E	.	1G	.
.	.	.	2.e/
2C/	.	2E/	.
.	.	.	4f/
2BB/	.	2D/	2g/
2C/	.	2E/	2e/
=29	=29	=29	=29
2D\	0.G]	2G/	2d/
1E	.	1C	1g
2C/	.	2.E/	2a/
1BB	.	.	1b
.	.	4C/	.
.	.	2D/	.
=30	=30	=30	=30
0AA	[0.A	0E	1cc
.	.	.	1r
1r	.	[1F	2.f/
.	.	.	4g/
=31	=31	=31	=31
1A	1A]	1F]	1a
1.G	0B	0G	1d
.	.	.	1g
2E\	.	.	.
=32	=32	=32	=32
0F	2.A/	1D	1.a
.	4B\	.	.
.	2c\	2r	.
.	1d	1D	2g/
1F	.	.	1f
.	2c\	2A/	.
=33	=33	=33	=33
1G	2B\	2G/	2e/
.	2G/	2B\	1d
0D	2.d\	1A	.
.	.	.	1g
.	4G/	.	.
.	1A	1r	.
.	.	.	2f#i/
=34	=34	=34	=34
!!linebreak:original
2r	0.G	1d	0g
1GG	.	.	.
.	.	1e	.
2.C/	.	.	.
.	.	1c	1e
4BB/	.	.	.
4AA/	.	.	.
4GG/	.	.	.
=35	=35	=35	=35
2BB/	1G	2B\	1d
4C/	.	0G	.
4D\	.	.	.
4E\	1r	.	2G/
4D\	.	.	.
4C/	.	.	2B/
4BB/	.	.	.
2C/	1r	.	1A
2D\	.	2F#i/	.
=36	=36	=36	=36
0.GG	0.r	2.G/	0G
.	.	4F/	.
.	.	2E/	.
.	.	2D/	.
.	.	2r	1d
.	.	[2G/	.
=37	=37	=37	=37
2.GG/	0.r	4G/]	2e/
.	.	4A/	.
.	.	2B\	1g
4AA/	.	.	.
2BB/	.	2G/	.
2C/	.	2E/	1a
2D\	.	1D	.
2BB/	.	.	4g/
.	.	.	4f/
=38	=38	=38	=38
0.C	[0.c	1C	1.e
.	.	1r	.
.	.	.	2c/
.	.	1G	1c
=39	=39	=39	=39
0C	0.c_	1G	1r
.	.	1.c	1.a
[1E	.	.	.
.	.	2B\	2g/
=40	=40	=40	=40
1E]	0.c]	1G	2g/
.	.	.	1cc
0F	.	0A	.
.	.	.	2b\
.	.	.	2.a/
.	.	.	4g/
=41	=41	=41	=41
!!linebreak:original
[0.G	[0.B	1r	2.g/
.	.	.	4f/
.	.	1r	0d
.	.	1g	.
=42	=42	=42	=42
0.G]	0.B_	0g	1r
.	.	.	1r
.	.	[1g	1d
=43	=43	=43	=43
2r	0.B]	2g\]	2e/
2.G\	.	2f\	1g
.	.	1d	.
4E\	.	.	.
2F\	.	.	2f/
1G	.	1r	1d
=44	=44	=44	=44
0.C	[0.c	1g	1.c
.	.	1.e	.
.	.	.	2g/
.	.	.	2a/
.	.	2c\	[2cc\
=45	=45	=45	=45
0.r	1c]	1c	4cc\]
.	.	.	4b\
.	.	.	4a/
.	.	.	4g/
.	0A	1r	2a/
.	.	.	2e/
.	.	1c	2.f/
.	.	.	4e/
=46	=46	=46	=46
0.r	0G	2d\	0g
.	.	1e	.
.	.	2.d\	.
.	2r	.	2f/
.	.	4c\	.
.	[2G/	[2B\	[2e/
=47	=47	=47	=47
0.r	2G/]	2B\]	2e/]
.	2F/	1A	1d
.	1E	.	.
.	.	2G/	2c/
.	2D/	2A/	1d
.	[2G/	2B\	.
=48	=48	=48	=48
!!pagebreak:original
0.r	1.G]	1G	2e/
.	.	.	4d/
.	.	.	4c/
.	.	1r	2B/
.	2F/	.	1c
.	2E/	[1G	.
.	4D/	.	2e/
.	4C/	.	.
=49	=49	=49	=49
0.r	2BB/	1G]	2d/
.	1C	.	2c/
.	.	1G	1g
.	2E/	.	.
.	2D/	1A	2f/
.	2C/	.	2e/
=50	=50	=50	=50
0.r	2.G/	2B\	2d/
.	.	1G	1e
.	4C/	.	.
.	2E/	.	.
.	2F/	2A/	1c
.	1D	1F	.
.	.	.	2B/
=51	=51	=51	=51
1r	0.C	0G	1.c
1r	.	.	.
.	.	.	2A/
1C	.	1E	[1G
=52	=52	=52	=52
[0.C	1r	1C	1G]
.	1r	0G	1r
.	1c	.	1r
=53	=53	=53	=53
1C]	0c	1r	1g
0AA	.	0F	1.a
.	1c	.	.
.	.	.	4g/
.	.	.	4f/
=54	=54	=54	=54
0GG	[0.B	0G	1e
.	.	.	1d
[1G	.	[1E	1r
=55	=55	=55	=55
!!linebreak:original
1G]	1B]	1E]	1g
0E	0c	0G	1.g
.	.	.	2e/
=56	=56	=56	=56
1D	0d	1A	2f/
.	.	.	2g/
2r	.	1F	1a
1D	.	.	.
.	[1G	1r	1b
4C/	.	.	.
4BB/	.	.	.
=57	=57	=57	=57
2C/	1G]	1G	1g
2E\	.	.	.
2D\	0F	2D/	2a/
4C/	.	1D	2b\
4BB/	.	.	.
4AA/	.	.	1cc
4GG/	.	.	.
2AA/	.	2C/	.
=58	=58	=58	=58
0.GG	0G	1D	2b\
.	.	.	2.g/
.	.	2.G/	.
.	.	.	4f/
.	.	.	2e/
.	.	4A/	.
.	1G	1B	1d
=59	=59	=59	=59
1D	1F	2A/	1r
.	.	1d	.
1r	0E	.	0g
.	.	2c#i\	.
1E	.	2c#i\	.
.	.	2B\	.
=60	=60	=60	=60
0F	[0.D	1d	1a
.	.	2d\	2a/
.	.	1f	1b-i
1D	.	.	.
.	.	2e\	2a/
=61	=61	=61	=61
1.F	0.D]	1.d	0a
2G\	.	4c\	.
.	.	4B\	.
1A	.	1A	1f
=62	=62	=62	=62
!!linebreak:original
1B-i	[0.dl	1G	1d
0G	.	0B-	1.g
.	.	.	4f/
.	.	.	4e/
=63	=63	=63	=63
[0.D	0.d]	1A	0.f
.	.	2.A/	.
.	.	4G/	.
.	.	2A/	.
.	.	2B\	.
=64	=64	=64	=64
1D]	0.r	2c\	0.r
.	.	2d\	.
2D\	.	2A/	.
2BB-i/	.	2B-i\	.
2C/	.	2A/	.
2D\	.	2F/	.
=65	=65	=65	=65
2GG/	0.r	2G/	0.r
1D	.	2A/	.
.	.	2.D/	.
2.F\	.	.	.
.	.	2A/	.
4E\	.	4G/	.
2D\	.	4F/	.
.	.	4D/	.
=66	=66	=66	=66
2C/	0.r	2E/	0.r
2D\	.	2D/	.
1F	.	2r	.
.	.	1d	.
1E	.	.	.
.	.	2c\	.
=67	=67	=67	=67
1D	0.r	2.d\	0.r
.	.	4A/	.
2r	.	8B-i/L	.
.	.	8A/	.
.	.	8G/	.
.	.	8F/J	.
2C/	.	2E/	.
2.D\	.	4r	.
.	.	4F/	.
.	.	4D/	.
4C/	.	[4E/	.
=68	=68	=68	=68
2AA/	0.r	4E/]	0.r
.	.	4F/	.
2GG/	.	2.G/	.
2C/	.	.	.
.	.	4A/	.
2D\	.	4B-i\	.
.	.	2A/	.
1BB-i	.	.	.
.	.	4F/	.
.	.	2G/	.
=69	=69	=69	=69
!!linebreak:original
0.AA	0.r	1A	2e/
.	.	.	2f/
.	.	2.A/	2e/
.	.	.	1.a
.	.	4G/	.
.	.	2E/	.
.	.	[2A/	.
=70	=70	=70	=70
0.r	0.r	2A/]	2cc\
.	.	2c\	4b\
.	.	.	2a/
.	.	1B	.
.	.	.	4f/
.	.	.	2g/
.	.	1A	2a/
.	.	.	[2f/
=71	=71	=71	=71
2.D\	0.r	0.r	2f/]
.	.	.	2d/
4BB/	.	.	.
2C/	.	.	2e/
2AA/	.	.	2c/
4GG/	.	.	2d/
2G\	.	.	.
.	.	.	2B/
[4G\	.	.	.
=72	=72	=72	=72
4G\]	0.r	0.r	2A/
4F\	.	.	.
2G\	.	.	2G/
4F\	.	.	2r
2D\	.	.	.
.	.	.	2.d/
4E\	.	.	.
4F\	.	.	.
4G\	.	.	4e/
2E\	.	.	2g/
=73	=73	=73	=73
4D\	0.r	0.r	4f/
2D\	.	.	4a/
.	.	.	4b\
4C/	.	.	2cc\
4AA/	.	.	.
2GG/	.	.	4b\
.	.	.	4g/
2D\	.	.	8f/L
.	.	.	8g/J
.	.	.	4a/
4BB/	.	.	2g/
2AA/	.	.	.
.	.	.	4f#i/
=74	=74	=74	=74
1GGl	0.r	2D/	1g
.	.	2E/	.
1r	.	2F/	2d/
.	.	2G/	2e/
1r	.	2A/	2f/
.	.	[2G/	2g/
=75	=75	=75	=75
0.r	0.r	4G/]	2a/
.	.	4F/	.
.	.	4E/	4g/
.	.	4D/	4f/
.	.	2F/	4e/
.	.	.	4d/
.	.	2G/	1d
.	.	1E	.
.	.	.	2c#i/
=76	=76	=76	=76
!!pagebreak:original
0.r	0.r	1D	1d
.	.	2F/	2r
.	.	2G/	1e
.	.	1A	.
.	.	.	2f/
=77	=77	=77	=77
0.r	0.r	2G/	2g/
.	.	2F/	1a
.	.	1c	.
.	.	.	2g/
.	.	2B\	2r
.	.	2c\	[2cc\
=78	=78	=78	=78
0.r	0.r	1d	2cc\]
.	.	.	2b\
.	.	2c\	1cc
.	.	2A/	.
.	.	2G/	2b\
.	.	[2c\	2g/
=79	=79	=79	=79
0.r	0.r	2c\]	2a/
.	.	2e-i\	2g/
.	.	1d	2r
.	.	.	2.f/
.	.	2B-\	.
.	.	.	4d/
.	.	2c\	2e/
=80	=80	=80	=80
0.r	0.r	2d\	2f/
.	.	1G	2g/
.	.	.	1d
.	.	2F/	.
.	.	2E/	2g/
.	.	2D/	2f/
=81	=81	=81	=81
0.r	0.r	1.G	2e/
.	.	.	1.d
.	.	1.d	.
.	.	.	1a
=82	=82	=82	=82
0.r	0.r	1.G	2g/
.	.	.	2b-\
.	.	.	4a/
.	.	.	4g/
.	.	1.A	2.f/
.	.	.	4g/
.	.	.	[2a/
=83	=83	=83	=83
!!linebreak:original
0.r	0.r	2F/	2a/]
.	.	2G/	1b-i
.	.	1B-i	.
.	.	.	2.g/
.	.	1A	.
.	.	.	4e/
.	.	.	2f#i/
=84	=84	=84	=84
0.r	0.r	0.Gl	0.gl
!!LO:LB:i:g=z
=85||	=85||	=85||	=85||
*>B	*>B	*>B	*>B
!!section: Et incarnatus est
!!!OMD: Et incarnatus est
*M2/1	*M2/1	*M2/1	*M2/1
*met(C|)	*met(C|)	*met(C|)	*met(C|)
[0C	[0c	[0G	0g
=86	=86	=86	=86
0C]	0c_	1G]	1e
.	.	1E	[1a
=87	=87	=87	=87
1F	0c_	1F	1a]
1E	.	1G	[1g
=88	=88	=88	=88
[0C	0c_	1E	1g]
.	.	1C	1e
=89	=89	=89	=89
0C_	0c_	0G	1c
.	.	.	[1g
=90	=90	=90	=90
!!linebreak:original
0C]	0c]	0E	1g]
.	.	.	1e
=91	=91	=91	=91
0AA	0c	0C	2f/
.	.	.	2e/
.	.	.	2d/
.	.	.	2c/
=92	=92	=92	=92
[0E	[0G	1r	[0B
.	.	1G	.
=93	=93	=93	=93
0E]	0G_	0B	0B]
=94	=94	=94	=94
1.C	0G_	0c	0r
2BB/	.	.	.
=95	=95	=95	=95
0GG	0G]	0d	0b
=96	=96	=96	=96
0AA	0r	1.c	0cc
.	.	4B\	.
.	.	4A/	.
=97	=97	=97	=97
!!linebreak:original
1E	0r	1G	1b
1F	.	1A	1a
=98	=98	=98	=98
1G	0r	1B	1g
1E	.	1c	[1cc
=99	=99	=99	=99
1F	0r	0d	1cc]
1G	.	.	1b
=100	=100	=100	=100
1.A	0r	[0c	0cc
2F\	.	.	.
=101	=101	=101	=101
1A	0r	1c]	1a
1B	.	1d	[1g
=102	=102	=102	=102
0c	0r	0e	1g]
.	.	.	1cc
=103	=103	=103	=103
0G	0r	[0d	1b
.	.	.	1g
=104	=104	=104	=104
!!pagebreak:original
1r	0r	0d]	0a
1F	.	.	.
=105	=105	=105	=105
1G	0r	1B	0g
[1B-i	.	[1G	.
=106	=106	=106	=106
1B-]	0r	1G]	1d
1G	.	[1d	[1g
=107	=107	=107	=107
0A	0r	2d\]	1g]
.	.	2B\	.
.	.	1c	1f#i
=108	=108	=108	=108
0G	0r	0d	1.g
.	.	.	2e/
=109	=109	=109	=109
0r	0D	1B	1f
.	.	1A	[1a
=110	=110	=110	=110
0r	0C	1.c	1a]
.	.	.	1g
.	.	2A/	.
=111	=111	=111	=111
!!linebreak:original
0r	1D	1B	2f/
.	.	.	2d/
.	1C	1c	1e
=112	=112	=112	=112
0D	0F	0d	0A
=113	=113	=113	=113
0C	0E	1e	0r
.	.	1c	.
=114	=114	=114	=114
1BB	[0D	0d	0r
[1D	.	.	.
=115	=115	=115	=115
1D]	0D]	0B	0r
[1GG	.	.	.
=116	=116	=116	=116
0GG]	1r	1G	0r
.	[1G	1D	.
=117	=117	=117	=117
1.C	0G_	0E	0r
2BB/	.	.	.
=118	=118	=118	=118
!!linebreak:original
1GG	1G]	0D	0r
[1D	1F	.	.
=119	=119	=119	=119
2D\]	1D	0r	0r
1BB	.	.	.
.	[1G	.	.
[2C/	.	.	.
=120	=120	=120	=120
2C/]	0G_	0r	0r
2GG/	.	.	.
2BB/	.	.	.
4C/	.	.	.
4D\	.	.	.
=121	=121	=121	=121
4E\	1G]	0r	0r
4D\	.	.	.
4C/	.	.	.
4BB/	.	.	.
1AA	1F#i	.	.
=122	=122	=122	=122
[0GG	[0G	[0B	[0d
=123	=123	=123	=123
0GG]	0G_	0B]	1d]
.	.	.	1e
=124	=124	=124	=124
0r	0G_	1.d	1d
.	.	.	[1g
.	.	2c\	.
=125	=125	=125	=125
!!linebreak:original
0r	0G]	0B	1g]
.	.	.	1e
=126	=126	=126	=126
[0D	0r	1A	1.f
.	.	1B	.
.	.	.	2g/
=127	=127	=127	=127
0D]	0r	1A	1a
.	.	[1d	[1b-i
=128	=128	=128	=128
1D	[0d	1d]	2b-\]
.	.	.	2a/
1G	.	2B\	2g/
.	.	2G/	2f/
=129	=129	=129	=129
1F	0d_	1A	1d
[1G	.	[1G	[1b-i
=130	=130	=130	=130
1G]	0d_	1G]	1b-]
1A	.	1D	1a
=131	=131	=131	=131
0B-i	0d]	0G	1.g
.	.	.	2f/
=132	=132	=132	=132
!!pagebreak:original
[0A	[0e	0c	0a
=133	=133	=133	=133
1A]	0e_	1A	1cc
[1E	.	1G	1b
=134	=134	=134	=134
1E]	0e_	0c	1g
1A	.	.	1a
=135	=135	=135	=135
1G	0e]	1r	1b
1c	.	1A	1e
=136	=136	=136	=136
1B	[0d	0D	1r
[1d	.	.	[1f
=137	=137	=137	=137
1d]	0d]	[0B	1f]
[1G	.	.	2g/
.	.	.	2f/
=138	=138	=138	=138
1G]	0r	1B]	2e/
.	.	.	2d/
1F	.	[1A	[1d
=139	=139	=139	=139
!!linebreak:original
0E	0r	1A]	1d]
.	.	1G	1c
=140	=140	=140	=140
[0D	[0d	0A	1.f
.	.	.	2g/
=141	=141	=141	=141
1D]	0d]	0d	1a
[1BB	.	.	[1g
=142	=142	=142	=142
1BB]	[0B	0G	1g]
1E	.	.	1e
=143	=143	=143	=143
0D	0B]	1r	1.f
.	.	1F	.
.	.	.	2g/
=144	=144	=144	=144
[0C	[0c	0G	1e
.	.	.	[1g
=145	=145	=145	=145
0C_	0c]	1.E	1g]
.	.	.	1f
.	.	2F/	.
=146	=146	=146	=146
!!linebreak:original
0C]	[0c	0G	1.e
.	.	.	2d/
=147	=147	=147	=147
1r	0c]	1F	1.f
[1c	.	[1F	.
.	.	.	2e/
=148	=148	=148	=148
0c]	0r	2F/]	1c
.	.	2D/	.
.	.	1E	1g
=149	=149	=149	=149
1A	0r	1F	1a
1F	.	[1f	1cc
=150	=150	=150	=150
0G	0r	1f]	0b
.	.	1e	.
=151	=151	=151	=151
[0F	[0c	0f	1.a
.	.	.	2f/
=152	=152	=152	=152
0F_	0c]	0r	2.f/
.	.	.	4e/
.	.	.	1c
=153	=153	=153	=153
!!linebreak:original
0F]	0A	0c	1r
.	.	.	1f
=154	=154	=154	=154
[0D	1A	0d	1.f
.	1B	.	.
.	.	.	2g/
=155	=155	=155	=155
0D]	1A	1.f	1a
.	[1d	.	[1b-i
.	.	2e\	.
=156	=156	=156	=156
0r	1d]	1f	2b-\]
.	.	.	2g/
.	1B	[1d	[1g
=157	=157	=157	=157
0r	0A	1d]	1g]
.	.	1c	1f#i
=158	=158	=158	=158
[0GG	[0G	1.d	1.g
.	.	2B\	2f/
=159	=159	=159	=159
0GG_	0G_	1.B	0d
.	.	2G/	.
=160	=160	=160	=160
!!pagebreak:original
0GG_	0G_	2.G/	0r
.	.	4F/	.
.	.	2D/	.
.	.	2E/	.
=161	=161	=161	=161
0GG]	0G]	2D/	0r
.	.	1G	.
.	.	2E/	.
=162	=162	=162	=162
1.BB	0r	2D/	0r
.	.	1d	.
2C/	.	[2c\	.
=163	=163	=163	=163
2D\	0r	4c\]	0r
.	.	4B\	.
2BB/	.	4A/	.
.	.	4G/	.
1AA	.	2.F#i/	.
.	.	4E/	.
=164	=164	=164	=164
2.GG/	0r	[0G	0r
4AA/	.	.	.
2BB/	.	.	.
2C/	.	.	.
=165	=165	=165	=165
2BB/	0r	0G_	0r
2.C/	.	.	.
4D\	.	.	.
4E\	.	.	.
4F\	.	.	.
=166	=166	=166	=166
2G\	0r	0G_	0r
1C	.	.	.
[2E\	.	.	.
=167	=167	=167	=167
!!linebreak:original
4E\]	0r	0G]	0r
4D\	.	.	.
2C/	.	.	.
2BB/	.	.	.
2E\	.	.	.
=168	=168	=168	=168
1D	0r	1F	0r
2GG/	.	2G/	.
[2C/	.	2E/	.
=169	=169	=169	=169
2C/]	0r	1A	0r
2D\	.	.	.
2E\	.	1G	.
[2C/	.	.	.
=170	=170	=170	=170
2C/]	0r	2C/	0r
2GG/	.	2D/	.
2AA/	.	2C/	.
2GG/	.	[2G/	.
=171	=171	=171	=171
2C/	0r	1.G]	0r
2BB/	.	.	.
2C/	.	.	.
2D\	.	2F/	.
=172	=172	=172	=172
2GG/	0r	2G/	0r
1C	.	2E/	.
.	.	1D	.
2BB/	.	.	.
=173	=173	=173	=173
1.C	0r	0C	0g
2BB/	.	.	.
=174	=174	=174	=174
!!linebreak:original
2C/	0r	0r	1a
2D\	.	.	.
2E\	.	.	2g/
2F\	.	.	[2cc\
=175	=175	=175	=175
1D	0r	0r	2cc\]
.	.	.	2b\
1C	.	.	[1cc
=176	=176	=176	=176
2.c\	0r	0r	0cc]
4B\	.	.	.
2c\	.	.	.
[2e\	.	.	.
=177	=177	=177	=177
2e\]	0r	0r	1b-
2.d\	.	.	.
.	.	.	2a/
4B\	.	.	.
2c\	.	.	[2g/
=178	=178	=178	=178
1A	0r	0r	2g/]
.	.	.	2f#i/
2.G\	.	.	[1g
4A\	.	.	.
=179	=179	=179	=179
2B\	0r	0r	1g]
2c\	.	.	.
2r	.	.	1f
2B\	.	.	.
=180	=180	=180	=180
2c\	0r	0r	2e/
2G\	.	.	2g/
2.B-i\	.	.	2d/
.	.	.	[2f/
4A\	.	.	.
=181	=181	=181	=181
!!linebreak:original
2.F\	0r	0r	4f/]
.	.	.	4e/
.	.	.	1c
4G\	.	.	.
2A\	.	.	.
[2D\	.	.	2d/
=182	=182	=182	=182
4D\]	0r	0r	1f
4E\	.	.	.
2F\	.	.	.
2C/	.	.	1e
[2G\	.	.	.
=183	=183	=183	=183
4G\]	0r	0r	1d
4F\	.	.	.
2G\	.	.	.
2A\	.	.	2c/
[2D\	.	.	2d/
=184	=184	=184	=184
4D\]	0r	0r	2B/
4C/	.	.	.
2D\	.	.	1A
2AA/	.	.	.
[2D\	.	.	2B/
=185	=185	=185	=185
2D\]	0r	0r	2A/
2F\	.	.	1d
1E	.	.	.
.	.	.	2c#i/
=186	=186	=186	=186
1.D	0D	0r	0d
[2F\	.	.	.
=187	=187	=187	=187
2F\]	1D	0r	0r
4E\	.	.	.
4D\	.	.	.
2C/	1E	.	.
2D\	.	.	.
=188	=188	=188	=188
!!pagebreak:original
1F	1A	0r	0r
2E\	1G	.	.
2D\	.	.	.
=189	=189	=189	=189
1.D	1F	0r	0r
.	[1E	.	.
2BB/	.	.	.
=190	=190	=190	=190
1C	1E]	0r	1r
2r	[1Dl	.	2.d/
2D\	.	.	.
.	.	.	4e/
=191	=191	=191	=191
2D\	1D]	0r	2f/
2BB/	.	.	1g
2C/	1r	.	.
2AA/	.	.	2f#i/
=192	=192	=192	=192
1GG	0r	1r	1.g
[1G	.	[1B	.
.	.	.	2f/
=193	=193	=193	=193
1G]	0r	1B]	1d
1A	.	1c	1c
=194	=194	=194	=194
1B	0r	2r	2d/
.	.	2d\	2f/
1c	.	2c\	2e/
.	.	2e\	[2a/
=195	=195	=195	=195
!!linebreak:original
2G\	0r	2d\	2a/]
2B\	.	2B\	2.g/
1A	.	2.c\	.
.	.	.	4e/
.	.	.	2f#i/
.	.	4d\	.
=196	=196	=196	=196
2G\	0r	1e	0g
1G	.	.	.
.	.	2d\	.
2F\	.	[2d\	.
=197	=197	=197	=197
1E	0r	2d\]	2r
.	.	2c\	1g
1D	.	1B	.
.	.	.	2f/
=198	=198	=198	=198
1C	0r	1c	1e
1r	.	1d	1d
=199	=199	=199	=199
[0c	0r	1e	2c/
.	.	.	1cc
.	.	1c	.
.	.	.	2b\
=200	=200	=200	=200
1c]	0r	1e	2a/
.	.	.	2g/
2B\	.	2d\	1g
2G\	.	2B\	.
=201	=201	=201	=201
1A	0r	1c	2f/
.	.	.	2e/
[1G	.	1d	1g
=202	=202	=202	=202
!!linebreak:original
2G\]	0r	2B\	1r
2F\	.	2A/	.
1E	.	1G	1c
=203	=203	=203	=203
1D	0r	2F/	2B/
.	.	2G/	1d
[1F	.	1A	.
.	.	.	4c/
.	.	.	4B/
=204	=204	=204	=204
1F]	0r	1D	1A
1G	.	1r	1B
=205	=205	=205	=205
2r	0r	1G	1G
1C	.	.	.
.	.	1A	1c
2AA/	.	.	.
=206	=206	=206	=206
1BB	0r	2F/	1d
.	.	[1.G	.
2.C/	.	.	2e/
.	.	.	[2c/
4D\	.	.	.
=207	=207	=207	=207
2E\	0r	2G/]	2c/]
2D\	.	2A/	1d
1G	.	2B\	.
.	.	[2G/	2B/
=208	=208	=208	=208
2E\	0r	2G/]	2.c/
2.F\	.	2.A/	.
.	.	.	4d/
.	.	.	2e/
4G\	.	4B\	.
2A\	.	2c\	2f/
=209	=209	=209	=209
!!linebreak:original
2G\	0r	2d\	1.g
[1.c	.	2c\	.
.	.	[1e	.
.	.	.	[2a/
=210	=210	=210	=210
2c\]	0r	2e\]	2a/]
2B\	.	1d	1g
1A	.	.	.
.	.	2c\	2f#i/
=211	=211	=211	=211
1G	0r	2B\	1g
.	.	2G/	.
1F	.	1A	2r
.	.	.	[2d/
=212	=212	=212	=212
1G	0r	2r	2d/]
.	.	1G	2B/
1C	.	.	2c/
.	.	2E/	[2A/
=213	=213	=213	=213
1BB	0r	2D/	2A/]
.	.	2.G/	2G/
1AA	.	.	2r
.	.	4E/	.
.	.	2F/	[2c/
=214	=214	=214	=214
1GG	0r	2G/	4c/]
.	.	.	4B/
.	.	2A/	2e/
1G	.	1B	2d/
.	.	.	2g/
=215	=215	=215	=215
1A	0r	2c\	2r
.	.	2F/	2f/
1G	.	2G/	2e/
.	.	[2B-i\	[2d/
=216	=216	=216	=216
!!pagebreak:original
2E\	0r	2B-\]	4d/]
.	.	.	4c/
2F\	.	2A/	1c
1D	.	2.F/	.
.	.	.	2B/
.	.	4E/	.
=217	=217	=217	=217
0Cl	0r	0Gl	0cl
!!LO:LB:i:g=z
=218||	=218||	=218||	=218||
*>C	*>C	*>C	*>C
!!section: Et unam
!!!OMD: Et unam
*M3/1	*M3/1	*M3/1	*M3/1
*met(O)	*met(O)	*met(O)	*met(O)
0.r	0.r	1c	1.c
.	.	2A/	.
.	.	2G/	2d/
.	.	[1c	[1e
=219	=219	=219	=219
0.r	0.r	2c\]	2e/]
.	.	2d\	2f/
.	.	1e	1g
.	.	1c	1g
=220	=220	=220	=220
0.r	0.r	0f	0a
.	.	2e\	1g
.	.	[2c\	.
=221	=221	=221	=221
0.r	0.r	2c\]	2a/
.	.	2B\	2g/
.	.	1A	1cc
.	.	1G	2b\
.	.	.	2g/
=222	=222	=222	=222
0.r	0.r	1c	2a/
.	.	.	1g
.	.	2B\	.
.	.	2G/	2.e/
.	.	1c	.
.	.	.	4f/
.	.	.	4e/
.	.	.	8d/L
.	.	.	8c/J
=223	=223	=223	=223
!!linebreak:original
0.r	0.r	2.d\	1B
.	.	4c\	.
.	.	1A	1r
.	.	1G	1b
=224	=224	=224	=224
0.r	0.r	2c\	1a
.	.	2d\	.
.	.	1e	2g/
.	.	.	1cc
.	.	1d	.
.	.	.	[2b\
=225	=225	=225	=225
0.r	0.r	2c\	4b\]
.	.	.	4cc\
.	.	2d\	1a
.	.	1G	.
.	.	.	2.g/
.	.	1A	.
.	.	.	4e/
.	.	.	2f#i/
=226	=226	=226	=226
0.r	0.G	0B	1.g
.	.	.	2e/
.	.	[1E	2e/
.	.	.	2d/
=227	=227	=227	=227
0.r	0.B	1E]	1g
.	.	0D	2f/
.	.	.	2e/
.	.	.	1d
=228	=228	=228	=228
0.C	[0.c	0.G	1c
.	.	.	1r
.	.	.	1g
=229	=229	=229	=229
0.F	0.c_	1r	1a
.	.	1r	1.cc
.	.	2.c\	.
.	.	.	4b\
.	.	4d\	4a/
=230	=230	=230	=230
!!linebreak:original
1E	0.c_	0.e	0g
0C	.	.	.
.	.	.	[1cc
=231	=231	=231	=231
0.F	0.c]	1.f	1cc]
.	.	.	0a
.	.	2e\	.
.	.	1c	.
=232	=232	=232	=232
1G	0.e	1B	1g
0A	.	2.A/	0cc
.	.	4B\	.
.	.	1c	.
=233	=233	=233	=233
1G	0e	1r	2b\
.	.	.	1g
1E	.	1G	.
.	.	.	2b\
1F	[1d	1D	1a
=234	=234	=234	=234
1G	0.d]	1B-i	1g
0D	.	0A	2r
.	.	.	1f
.	.	.	2e/
=235	=235	=235	=235
1GG	[0.d	2G/	0g
.	.	2.B\	.
2r	.	.	.
.	.	4c\	.
2GG/	.	2d\	.
2.BB/	.	1G	1r
4C/	.	.	.
=236	=236	=236	=236
2.D\	0.d_	2F/	2d/
.	.	2G/	2.g/
4E\	.	.	.
2F\	.	2r	.
.	.	.	4a/
1G	.	2G/	2b\
.	.	1D	1a
2F\	.	.	.
=237	=237	=237	=237
!!linebreak:original
2G\	0.d_	2G/	2g/
2D\	.	2A/	2f/
2.G\	.	2B\	2g/
.	.	2c\	2r
4A\	.	.	.
2B\	.	2d\	2d/
2c\	.	2r	[2g/
=238	=238	=238	=238
1d	0.d]	2G/	2g/]
.	.	1G	2a/
1G	.	.	2b\
.	.	2B\	2g/
1F	.	1A	1a
=239	=239	=239	=239
1G	0.d	1G	2r
.	.	.	1b-i
0D	.	1r	.
.	.	.	4a/
.	.	.	4g/
.	.	1d	1f
=240	=240	=240	=240
1E	0.r	1B	1.g
1C	.	2.c\	.
.	.	.	2f/
.	.	4B\	.
1G	.	2G/	2e/
.	.	2A/	2d/
=241	=241	=241	=241
1G	0.r	1B	1e
2F\	.	2A/	2d/
2D\	.	1A	1d
1E	.	.	.
.	.	2G/	2c#i/
=242	=242	=242	=242
1D	0.r	2A/	2d/
.	.	2B\	2.f/
2r	.	2c\	.
.	.	.	4e/
2D\	.	2d\	2d/
2.F\	.	2.A/	1c
4G\	.	4B\	.
=243	=243	=243	=243
1A	0.r	1c	2.f/
.	.	.	4g/
2F\	.	1d	2a/
2G\	.	.	2b\
2A\	.	2.c\	2.cc\
2B\	.	.	.
.	.	4d\	4b\
=244	=244	=244	=244
!!pagebreak:original
1.c	0.r	1.e	2g/
.	.	.	1a
2B\	.	2d\	2g/
2A\	.	2c\	2cc\
2G\	.	2B\	4b\
.	.	.	[4g/
=245	=245	=245	=245
2c\	0.r	2c\	4g/]
.	.	.	4e/
2B\	.	2G/	2d/
1c	.	2r	2e/
.	.	2A/	2c/
1d	.	2G/	2r
.	.	2D/	2f/
=246	=246	=246	=246
1.c	0.r	2E/	2g/
.	.	1F	1a
2B\	.	2.G/	2g/
1A	.	.	1cc
.	.	4E/	.
.	.	2F/	.
=247	=247	=247	=247
2r	1.G	2G/	1b
1G	.	1B	.
.	.	.	1r
2A\	2F/	2A/	.
2B\	1E	1G	1g
2c\	.	.	.
=248	=248	=248	=248
1d	1D	0A	1.f
2.D\	[0d	.	.
.	.	.	2g/
4E\	.	.	.
2F\	.	1r	2a/
[2G\	.	.	[2b\
=249	=249	=249	=249
4G\]	1d]	1B	4b\]
4F\	.	.	4a/
4E\	.	.	4g/
4D\	.	.	4f/
1.C	0e	2.c\	2e/
.	.	.	1g
.	.	4B\	.
.	.	2G/	.
[2AA/	.	2A/	[2cc\
=250	=250	=250	=250
2AA/]	1e	2E/	2cc\]
2GG/	.	1G	2b\
2.C/	2.e\	.	1g
.	.	1E	.
4D\	4d\	.	.
1E	2B\	.	2.g/
.	2c\	2C/	.
.	.	.	4a/
=251	=251	=251	=251
!!linebreak:original
2C/	2e\	1G	2cc\
1G	2d\	.	1b
.	1G	2B\	.
2E\	.	2c\	1g
1D	1A	1d	.
.	.	.	2f#i/
=252	=252	=252	=252
[0.GGl	[0.Gl	1e	[0.gl
.	.	2d\	.
.	.	1.B	.
=253	=253	=253	=253
0.GG_	0.G_	2.G/	0.g_
.	.	4A/	.
.	.	1B	.
.	.	1E	.
=254	=254	=254	=254
0.GG]	0.G]	0.Dl	0.g]
==	==	==	==
*-	*-	*-	*-
!!!RDF**kern: l=long note in original notation
!!!RDF**kern: i=editorial accidental
!!!RDF**kern: %=rational rhythm
!!!rscale-alt: 1/2
!!!ENC:	Will Watson 13/1/2012
!!!END:	2012/01/13/
!!!EED:	Jesse Rodin
!!!EEV:	2012/03/13/
!!!ONB:	Translated from MusicXML and edited on 2012/03/13/ by Craig Sapp
!!muse2ps: T^@{OPR}^u^@{ONM}{. }@{OTL}^C^@{COM}^i2I100v85,90,85,150Q16
